X: 2808
T: Bantry Lasses, The
R: reel
M: 4/4
K: Dmajor
DE|:(3FFF AF DFAF|G2 FG EFGE|F2 FE DFAB|
=cAGE EDDF|(3AAA AF DFAF|G2 FG EFGE|
F2 FE DFAd|1 cAGE EDDE:|2 cAGE EDDB||
|:Addc dfed|(3Bcd ef gefd|Addc dfed|
cAGE EDDB|Addc dfed|(3Bcd ef g2 ge|
~f3d efed|1 cAGE EDDB:|2 cAGE EDDE||

